X:1
T:Haweis Third
T:E Major         Thomas Haweis, 1791
T:Thomas Haweis, 1791                         77. 77. 77.
T:Transcribed from Carmina Christo, 1791
T:No Copyright.  Transcribed from Suffolk Harmony, 1786.
T:No Copyright.  Transcribed from Suffolk Harmony, 1786.
Z:No Copyright.  Transcribed from Suffolk Harmony, 1786.
%%score [ 1 2 3 4 ]
L:1/8
Q:1/4=100
M:4/4
K:Eb
V:1 treble nm="Tr." snm="Tr."
V:2 treble nm="C." snm="C."
V:3 treble-8 nm="T." snm="T."
V:4 bass nm="B." snm="B."
V:1
"_1. From the cross,  up–lif–ted  high,                  Where the Savior deigns to die,            What  me   –   lo –  dious      sounds    I       hear, \n2. Sprinkled now with blood the throne,           Why beneath thy burdens groan?         On     my       pier – ced        bo    –   dy        laid, \n3. Spread  for  thee  the  festal  board,                 See with richest dainties stored,           To    thy     Fa  –  ther's   bo   –   som    pressed," B2 G2 E3 e | %1
 ed dc{c} B4 | A2 G2 F2 E2 | B2 AG{G} F4 | B2 (3cB=A B2 (3ABc | fe dc{c} d4 | %6
"_1. Bur – sting   on    my      ra – vished  ear,        Bursting   on     my    ra – vished  ear,       Love's redeeming work is done,      Love's redeeming \n2. Jus – tice   owns  the     ran – som   paid,       Jus–tice  owns  the   ran – som  paid;       Bow the knee and kiss the Son,       Bow the knee and\n3. Yet    a –  gain        a       child   confessed,       Yet    a  – gain     a     child  confessed;       Never from  his house to roam,       Ne –ver  from  his" d2 c2 B3 B | %7
 fe dc B4 | F2 F2 B3 e | B2 =A2 B4 | d2 B2 d2 B2 | G2 B2 B4 | A2 A2 F2 B2 | %13
"_1. work is done. \n2. kiss the Son,         Come,              come,                come,           come,   Come  and  wel – come,  sin –ner come. \n3. house to roam," c2 =A2 F4 | %14
 d2 z2 e2 z2 | B2 z2 !fermata!A4 | d2 cB BA Bc | d2 [ce]2 [Bd]4 | %18
"_Love's redeeming work is done\nBow the knee and kiss the Son,\nNever from his house to roam," c2 c2 B2 B2 | %19
 B2 B2 B4 | %20
"_Come and welcome, Come and welcome, Come and welcome, come.     Come  and   wel – come,    sin – ner  come." B B B B B B B B | %21
 B B B B [Bd]4 | B2 BA AG GA | B2 B2 B4 |] %24
V:2
 z8 | z8 | z8 | z8 | z8 | z8 | %6
"_1. Bur – sting    on    my     ra – vished   ear,       Bursting    on   my      ra – vished  ear,                                   Love's redeeming, Love's redeeming\n2. Jus – tice    owns  the     ran – som   paid,      Jus–tice  owns  the    ran – som  paid;                                  Bow the knee and,  Bow the knee and\n3. Yet    a –  gain        a       child   confessed,       Yet    a  –  gain     a      child  confessed;                                 Ne –ver  from  his   Ne–ver  from  his" F2 F2 G3 G | %7
 F2 F2 F4 | B,2 CD E2 E2 | DC FE D4 | z8 | E2 B,2 B2 G2 | E2 E2 D2 D2 | %13
"_1. work is done. \n2. kiss the Son,         Come,              come,                come,           come,   Come  and  wel – come,\n3. house to roam," C2 =A,2 F4 | %14
 F2 z2 F2 z2 | F2 z2 !fermata!F4 | F2 F2 F2 G2 | %17
"_Love's redeeming work is done\nsin –ner come.  Bow the knee and kiss the Son, \n                              Never from his house to roam," F2 F2 F4 | %18
 E2 E2 E2 E2 | D2 E2 D4 | %20
"_Come and welcome, Come and welcome, Come and welcome, come.     Come  and   wel – come,    sin – ner  come." E E E E D D D D | %21
 E E E E F4 | G2 F2 E2 F2 | E2 D2 E4 |] %24
V:3
 z8 | z8 | z8 | z8 | z8 | z8 | %6
"_1. Bur – sting   on    my      ra – vished  ear,        Bursting   on     my    ra – vished  ear,       Love's redeeming work is done,      Love's redeeming\n2. Jus – tice   owns  the     ran – som   paid,       Jus–tice  owns  the   ran – som  paid;       Bow the knee and kiss the Son,       Bow the knee and\n3. Yet    a –  gain        a       child   confessed,       Yet    a  – gain     a     child  confessed;       Never from  his house to roam,       Ne –ver  from  his" D2 F2 B3 e | %7
 dc B=A B4 | d3 f e3 g | fe dc B4 | f2 d2 f2 d2 | B2 G2 E4 | e2 c2 d2 B2 | %13
"_1. work is done. \n2. kiss the Son,         Come,              come,                come,           come,   Come  and  wel – come,  sin –ner come. \n3. house to roam," c2 =A2 F4 | %14
 B2 z2 c2 z2 | d2 z2 !fermata!e4 | f2 ed dc B2 | F2 =A2 B4 | %18
"_Love's redeeming work is done\nBow the knee and kiss the Son,\nNever from his house to roam," c2 e2 c2 e2 | %19
 A2 G2 F4 | %20
"_Come and welcome, Come and welcome, Come and welcome, come.     Come  and   wel – come,    sin – ner  come." E E E E F F F F | %21
 G G G G A4 | e2 dc cB A2 | G2 F2 E4 |] %24
V:4
 z4"_1. From  the cross,     up  –  lif  –  ted      high,   Where the Savior   deigns   to   die,                    What   me  –    lo   –  dious    sounds    I \n2. Sprinkled  now     with  blood  the throne,    Why  beneath  thy   burdens  groan?                    On      my       pier   – ced         bo  –   dy\n3. Spread  for  thee    the    fes  –  tal    board,      See  with  richest  dainties  stored,                     To      thy       Fa   –  ther's       bo – som" B,2 G,2 | %1
 E,3 E, E,D, D,C, |{C,} B,,4 A,2 G,2 | F,2 E,2 B,2 A,G, |{G,} F,4 B,,2 (3C,B,,=A,, | %5
 B,,2 (3=A,,B,,C, F,E, D,C, | %6
"_1.  hear,      Bursting  on  my  ravished   ear,      Bursting   on     my    ra – vished  ear,                                      Love's redeeming,  Love's redeeming \n2.  laid,       Justice owns the  ransom  paid;      Jus–tice  owns  the   ran – som  paid;                                      Bow the knee and,  Bow the knee and\n3. pressed, Yet  again a  child   con – fessed;     Yet    a  – gain    a     child  confessed;                                      Ne –ver  from  his   Ne–ver  from  his" (B,2 =A,2) G, G, E, E, | %7
 F,2 F,,2 B,,4 | B,2 =A,2 G,2 E,2 | F,2 F,,2 B,,4 | z8 | G,2 E,2 G,2 E,2 | C,2 F,2 B,2 B,2 | %13
"_1.  work is done\n2.  kiss the Son,     \n     and welcome,   and welcome,  and welcome, come;  \n Come  and  wel –come,  sin–ner come.\n3. phouse to roam," C2 =A,2 F,4 | %14
 z B,, D, B,, z F, A, F, | z B, D B, !fermata!F,4 | B,,2 C,2 D,2 E,2 | F,2 F,,2 B,,4 | %18
"_Love's redeeming work is done\nBow the knee and kiss the Son,\nNever from his house to roam," A,2 A,2 G,2 G,2 | %19
 F,2 E,2 B,,4 | %20
"_______________________________________________________________________\nEdited by B. C. Johnston, 2018.    \n   1. \nBass \nnotes in measures 2, 5, and 6 moved down an octave.\n   2. Measure 10, Treble: second note changed from A-flat to A-natural." z"_and welcome,           and welcome,          and welcome, come.        Come  and   wel – come,    sin – ner  come." E, G, E, z B,, D, B,, | %21
 z E, G, E, B,,4 | E,2 F,2 G,2 A,2 | B,2 B,,2 E,4 |] %24

